share/icons/hop/hop.svg

<?xml version="1.0" encoding="UTF-8" standalone="no"?>
<!-- Created with Inkscape (http://www.inkscape.org/) -->

<svg
   xmlns:dc="http://purl.org/dc/elements/1.1/"
   xmlns:cc="http://creativecommons.org/ns#"
   xmlns:rdf="http://www.w3.org/1999/02/22-rdf-syntax-ns#"
   xmlns:svg="http://www.w3.org/2000/svg"
   xmlns="http://www.w3.org/2000/svg"
   xmlns:sodipodi="http://sodipodi.sourceforge.net/DTD/sodipodi-0.dtd"
   xmlns:inkscape="http://www.inkscape.org/namespaces/inkscape"
   width="150.25871"
   height="150.25871"
   id="svg14350"
   sodipodi:version="0.32"
   inkscape:version="0.48.4 r9939"
   version="1.0"
   sodipodi:docname="hop.svg"
   inkscape:output_extension="org.inkscape.output.svg.inkscape">
  <metadata
     id="metadata9">
    <rdf:RDF>
      <cc:Work
         rdf:about="">
        <dc:format>image/svg+xml</dc:format>
        <dc:type
           rdf:resource="http://purl.org/dc/dcmitype/StillImage" />
      </cc:Work>
    </rdf:RDF>
  </metadata>
  <defs
     id="defs3">
    <inkscape:perspective
       sodipodi:type="inkscape:persp3d"
       inkscape:vp_x="0 : 75.129349 : 1"
       inkscape:vp_y="0 : 1000 : 0"
       inkscape:vp_z="150.2587 : 75.129349 : 1"
       inkscape:persp3d-origin="75.129349 : 50.086233 : 1"
       id="perspective10" />
  </defs>
  <sodipodi:namedview
     inkscape:document-units="mm"
     id="base"
     pagecolor="#ffffff"
     bordercolor="#666666"
     borderopacity="1.0"
     inkscape:pageopacity="0.0"
     inkscape:pageshadow="2"
     inkscape:zoom="11.2"
     inkscape:cx="75.719053"
     inkscape:cy="65.232979"
     inkscape:current-layer="layer1"
     inkscape:window-width="1687"
     inkscape:window-height="1337"
     inkscape:window-x="36"
     inkscape:window-y="12"
     showgrid="false"
     inkscape:window-maximized="0" />
  <g
     inkscape:label="Layer 1"
     inkscape:groupmode="layer"
     id="layer1"
     transform="translate(-518.4421,-458.66142)">
    <rect
       style="fill:#ffcb00;fill-opacity:1;stroke:#000000;stroke-width:3.74880409;stroke-miterlimit:4;stroke-dasharray:none;stroke-opacity:1"
       id="rect3527"
       width="106.67611"
       height="106.67611"
       x="743.82739"
       y="-95.609375"
       ry="5.2659869"
       transform="matrix(0.7071068,0.7071068,-0.7071068,0.7071068,0,0)" />
    <path
       style="fill:#020202"
       d="m 626.93614,565.81982 c -0.2032,-0.0436 -1.45008,-0.32088 -2.77086,-0.61622 -3.34739,-0.74855 -4.82574,-1.02234 -8.95908,-1.65927 -10.04565,-1.54797 -13.05403,-2.17572 -15.06932,-3.14446 -1.78703,-0.85902 -2.35002,-1.4005 -3.28094,-3.15558 -0.99509,-1.87605 -1.66887,-3.89063 -2.89815,-8.66534 -0.58854,-2.28595 -1.20669,-4.53034 -1.37368,-4.98753 -0.39623,-1.08482 -2.27554,-4.93695 -2.72388,-5.58328 -0.19204,-0.27686 -1.07234,-0.89232 -1.95621,-1.36769 -3.14571,-1.69186 -5.67142,-3.32601 -7.24109,-4.68506 -1.03602,-0.89701 -2.03195,-1.87697 -2.03195,-1.99938 0,-0.0716 -0.18704,-0.33722 -0.41563,-0.59018 -0.2286,-0.25295 -0.58188,-0.77538 -0.78508,-1.16093 -0.42227,-0.80125 -0.72029,-0.80759 -1.93444,-0.0411 -0.93906,0.5928 -3.10062,1.74286 -5.93464,3.15751 -3.85626,1.92494 -6.66653,2.93505 -10.95476,3.93752 -1.26082,0.29475 -5.78134,0.24594 -7.49522,-0.0809 -2.34642,-0.44749 -5.46534,-1.44778 -7.21559,-2.31416 -1.94764,-0.96407 -2.84649,-1.98499 -4.2585,-4.83682 -1.94692,-3.93217 -2.30505,-5.66629 -1.37702,-6.66766 0.80056,-0.86382 1.16358,-0.6586 1.74942,0.98901 0.76092,2.13996 1.70045,3.66912 3.3337,5.42583 2.93235,3.15401 7.43582,4.32473 11.45844,2.97875 2.64665,-0.88558 7.71539,-3.7172 9.32853,-5.21134 0.2032,-0.18821 0.78508,-0.65651 1.29306,-1.04068 1.51611,-1.14656 8.86487,-8.05047 10.32681,-9.70168 1.48038,-1.67204 7.78822,-6.80377 9.80804,-7.97932 1.86847,-1.08745 2.16415,-1.22426 3.78683,-1.75211 1.40369,-0.45661 1.84431,-0.51149 4.15628,-0.51764 4.20005,-0.0112 6.78238,0.88531 10.45989,3.63126 1.86672,1.39386 3.27889,2.7979 6.72433,6.68563 3.29419,3.71706 6.45365,6.90677 7.56871,7.64117 0.65263,0.42984 0.92265,0.48666 2.31293,0.48666 1.4012,0 1.70737,-0.0657 2.78855,-0.59791 1.43191,-0.70493 2.65931,-1.63077 2.38592,-1.79973 -0.10546,-0.0652 -0.91889,-0.49379 -1.80762,-0.95248 -3.08601,-1.59272 -4.13175,-2.56593 -3.86328,-3.59535 0.16921,-0.64885 1.25359,-1.27472 2.20855,-1.27472 0.77824,0 2.36759,0.64727 3.15252,1.28389 0.61389,0.49789 3.14103,2.66704 3.71169,3.1859 0.30138,0.27402 0.87552,0.55357 1.27585,0.62121 0.96341,0.16276 1.80275,0.52434 2.45191,1.05625 0.73655,0.60351 1.54256,1.07263 3.57822,2.08265 2.89079,1.43428 4.61809,2.75131 4.61809,3.5212 0,0.5129 -0.7573,0.99011 -2.48432,1.56546 l -1.28362,0.42764 -3.2421,-0.41062 c -3.03697,-0.38465 -3.31224,-0.39241 -4.35044,-0.12261 -1.72993,0.44955 -3.39918,1.69114 -6.59952,4.90872 -3.3481,3.36614 -4.52811,4.2995 -6.07953,4.80881 -1.62275,0.53271 -2.03012,0.95592 -5.79649,6.02178 -1.67137,2.24803 -3.09604,3.57091 -4.64372,4.31193 -1.22443,0.58625 -2.83438,0.91554 -2.83438,0.57971 0,-0.10855 -0.14547,-0.24395 -0.32326,-0.30086 -0.48615,-0.15562 -1.33925,-1.62981 -1.33925,-2.31426 0,-0.66185 0.86615,-1.64632 1.49732,-1.70185 0.89242,-0.0785 0.98369,-0.0449 1.08805,0.40023 0.13633,0.58153 0.80227,0.70457 1.56828,0.28976 0.68928,-0.37327 2.04273,-2.37199 2.51381,-3.71232 0.47766,-1.35901 0.45845,-2.71076 -0.0514,-3.61796 -0.22191,-0.39482 -0.4505,-0.71822 -0.50799,-0.71866 -0.0575,-4.3e-4 -0.51667,-0.3745 -1.0204,-0.83125 -0.51081,-0.46318 -1.09845,-0.83046 -1.32868,-0.83046 -0.36449,0 -1.66364,0.62868 -1.91172,0.92512 -0.0508,0.0607 -0.38331,0.28718 -0.7389,0.5033 -1.76511,1.07276 -2.55687,2.78742 -2.70965,5.86815 -0.0558,1.12497 -0.005,2.77403 0.1127,3.69447 0.11741,0.91438 0.32092,2.74315 0.45225,4.06391 0.2686,2.70138 0.61555,3.61691 1.62409,4.28563 1.29863,0.86105 6.93359,2.92477 12.89708,4.72336 6.85801,2.06837 7.87328,2.40543 11.0834,3.67961 2.4362,0.96698 2.95558,1.28964 2.95558,1.83608 0,0.56675 -1.68998,1.1733 -2.67849,0.96132 z"
       id="path4500"
       inkscape:connector-curvature="0"
       sodipodi:nodetypes="ccssssscsssccssssssssssssssssssssscscssscsssscssssssssssccsccssccscssssscc" />
  </g>
</svg>

<?xml version="1.0" encoding="UTF-8" standalone="no"?>
<!-- Created with Inkscape (http://www.inkscape.org/) -->
<svg
   xmlns:dc="http://purl.org/dc/elements/1.1/"
   xmlns:cc="http://creativecommons.org/ns#"
   xmlns:rdf="http://www.w3.org/1999/02/22-rdf-syntax-ns#"
   xmlns:svg="http://www.w3.org/2000/svg"
   xmlns="http://www.w3.org/2000/svg"
   xmlns:sodipodi="http://sodipodi.sourceforge.net/DTD/sodipodi-0.dtd"
   xmlns:inkscape="http://www.inkscape.org/namespaces/inkscape"
   width="150.25871"
   height="150.25871"
   id="svg14350"
   sodipodi:version="0.32"
   inkscape:version="0.46"
   version="1.0"
   sodipodi:docbase="F:\Inkscape drawings"
   sodipodi:docname="hop.svg"
   inkscape:output_extension="org.inkscape.output.svg.inkscape">
  <metadata
     id="metadata9">
    <rdf:RDF>
      <cc:Work
         rdf:about="">
        <dc:format>image/svg+xml</dc:format>
        <dc:type
           rdf:resource="http://purl.org/dc/dcmitype/StillImage" />
      </cc:Work>
    </rdf:RDF>
  </metadata>
  <defs
     id="defs3">
    <inkscape:perspective
       sodipodi:type="inkscape:persp3d"
       inkscape:vp_x="0 : 75.129349 : 1"
       inkscape:vp_y="0 : 1000 : 0"
       inkscape:vp_z="150.2587 : 75.129349 : 1"
       inkscape:persp3d-origin="75.129349 : 50.086233 : 1"
       id="perspective10" />
  </defs>
  <sodipodi:namedview
     inkscape:document-units="mm"
     id="base"
     pagecolor="#ffffff"
     bordercolor="#666666"
     borderopacity="1.0"
     inkscape:pageopacity="0.0"
     inkscape:pageshadow="2"
     inkscape:zoom="1.4"
     inkscape:cx="373.5839"
     inkscape:cy="17.769451"
     inkscape:current-layer="layer1"
     inkscape:window-width="1280"
     inkscape:window-height="968"
     inkscape:window-x="38"
     inkscape:window-y="32"
     showgrid="false" />
  <g
     inkscape:label="Layer 1"
     inkscape:groupmode="layer"
     id="layer1"
     transform="translate(-518.4421,-458.66142)">
    <rect
       style="fill:#ffcb00;fill-opacity:1;stroke:#000000;stroke-width:3.74880409;stroke-miterlimit:4;stroke-dasharray:none;stroke-opacity:1"
       id="rect3527"
       width="106.67611"
       height="106.67611"
       x="743.82739"
       y="-95.609375"
       ry="5.2659869"
       transform="matrix(0.7071068,0.7071068,-0.7071068,0.7071068,0,0)" />
    <path
       style="fill:#020202"
       d="M 626.93614,565.81982 C 626.73294,565.77625 625.48606,565.49894 624.16528,565.2036 C 620.81789,564.45505 619.33954,564.18126 615.2062,563.54433 C 605.16055,561.99636 602.15217,561.36861 600.13688,560.39987 C 598.34985,559.54085 597.78686,558.99937 596.85594,557.24429 C 595.86085,555.36824 595.18707,553.35366 593.95779,548.57895 C 593.36925,546.293 592.7511,544.04861 592.58411,543.59142 C 592.18788,542.5066 590.30857,538.65447 589.86023,538.00814 C 589.66819,537.73128 588.78789,537.11582 587.90402,536.64045 C 584.75831,534.94859 582.2326,533.31444 580.66293,531.95539 C 579.62691,531.05838 578.63098,530.07842 578.63098,529.95601 C 578.63098,529.88437 578.44394,529.61879 578.21535,529.36583 C 577.98675,529.11288 577.63347,528.59045 577.43027,528.2049 C 577.008,527.40365 576.70998,527.39731 575.49583,528.16377 C 574.55677,528.75657 572.39521,529.90663 569.56119,531.32128 C 565.70493,533.24622 562.89466,534.25633 558.60643,535.2588 C 557.34561,535.55355 552.82509,535.50474 551.11121,535.17787 C 548.76479,534.73038 545.64587,533.73009 543.89562,532.86371 C 541.94798,531.89964 541.04913,530.87872 539.63712,528.02689 C 537.6902,524.09472 537.33207,522.3606 538.2601,521.35923 C 539.06066,520.49541 539.42368,520.70063 540.00952,522.34824 C 540.77044,524.4882 541.70997,526.01736 543.34322,527.77407 C 546.27557,530.92808 550.77904,532.0988 554.80166,530.75282 C 557.44831,529.86724 562.51705,527.03562 564.13019,525.54148 C 564.33339,525.35327 564.91527,524.88497 565.42325,524.5008 C 566.93936,523.35424 574.28812,516.45033 575.75006,514.79912 C 577.23044,513.12708 583.53828,507.99535 585.5581,506.8198 C 587.42657,505.73235 587.72225,505.59554 589.34493,505.06769 C 590.74862,504.61108 591.18924,504.5562 593.50121,504.55005 C 597.70126,504.53888 600.28359,505.43536 603.9611,508.18131 C 605.82782,509.57517 607.23999,510.97921 610.68543,514.86694 C 613.97962,518.584 617.13908,521.77371 618.25414,522.50811 C 618.90677,522.93795 619.17679,522.99477 620.56707,522.99477 C 621.96827,522.99477 622.27444,522.92912 623.35562,522.39686 C 624.78753,521.69193 626.01493,520.76609 625.74154,520.59713 C 625.63608,520.53196 624.82265,520.10334 623.93392,519.64465 C 620.84791,518.05193 619.80217,517.07872 620.07064,516.0493 C 620.23985,515.40045 621.32423,514.77458 622.27919,514.77458 C 623.05743,514.77458 624.64678,515.42185 625.43171,516.05847 C 626.0456,516.55636 628.57274,518.72551 629.1434,519.24437 C 629.44478,519.51839 630.01892,519.79794 630.41925,519.86558 C 631.38266,520.02834 632.222,520.38992 632.87116,520.92183 C 633.60771,521.52534 634.41372,521.99446 636.44938,523.00448 C 639.34017,524.43876 641.06747,525.75579 641.06747,526.52568 C 641.06747,527.03858 640.31017,527.51579 638.58315,528.09114 L 637.29953,528.51878 L 634.05743,528.10816 C 631.02046,527.72351 630.74519,527.71575 629.70699,527.98555 C 627.97706,528.4351 626.30781,529.67669 623.10747,532.89427 C 619.75937,536.26041 618.57936,537.19377 617.02794,537.70308 C 615.40519,538.23579 614.99782,538.659 611.23145,543.72486 C 609.56008,545.97289 608.13541,547.29577 606.58773,548.03679 C 605.3633,548.62304 603.75335,548.95233 603.75335,548.6165 C 603.75335,548.50795 603.60788,548.37255 603.43009,548.31564 C 602.94394,548.16002 602.09084,546.68583 602.09084,546.00138 C 602.09084,545.33953 602.95699,544.35506 603.58816,544.29953 C 604.48058,544.22101 604.57185,544.25458 604.67621,544.69976 C 604.81254,545.28129 605.47848,545.40433 606.24449,544.98952 C 606.93377,544.61625 608.28722,542.61753 608.7583,541.2772 C 609.23596,539.91819 609.21675,538.56644 608.70687,537.65924 C 608.48496,537.26442 608.25637,536.94102 608.19888,536.94058 C 608.14139,536.94015 607.68221,536.56608 607.17848,536.10933 C 606.66767,535.64615 606.08003,535.27887 605.8498,535.27887 C 605.48531,535.27887 604.18616,535.90755 603.93808,536.20399 C 603.88728,536.26468 603.55477,536.49117 603.19918,536.70729 C 601.43407,537.78005 600.64231,539.49471 600.48953,542.57544 C 600.43373,543.70041 600.48403,545.34947 600.60223,546.26991 C 600.71964,547.18429 600.92315,549.01306 601.05448,550.33382 C 601.32308,553.0352 601.67003,553.95073 602.67857,554.61945 C 603.9772,555.4805 609.61216,557.54422 615.57565,559.34281 C 622.43366,561.41118 623.44893,561.74824 626.65905,563.02242 C 629.09525,563.9894 629.61463,564.31206 629.61463,564.8585 C 629.61463,565.42525 627.92465,566.0318 626.93614,565.81982 z M 612.8048,559.10818 C 612.6524,559.0097 612.40302,558.93368 612.25062,558.93927 C 612.06792,558.94597 612.09939,559.00351 612.34299,559.10818 C 612.85081,559.3264 613.14247,559.3264 612.8048,559.10818 z"
       id="path4500" />
  </g>
</svg>
